X:1
T:San Diego, 77.77.77
T:Charles Howard Marsh, 1918
T:San Diego, 77.77.77
T:Public Domain
C:Charles Howard Marsh, 1918
Z:Public Domain
%%score ( 1 2 ) 3
L:1/8
M:4/4
K:F
V:1 treble 
V:2 treble 
V:3 bass 
V:1
 [A,CF]2 [A,CF]2 [A,CF]2 [CG]2 | [CFA]2 [CGc]2 [FAf]4 | [CFc]2 [DFd]2 [D^Fc]2 [DGB]2 | %3
 [CFA]2 [B,EG]2 [A,CF]4 | [FAf]3 [CFc] [DFd]2 [CFc]2 | [DGc]2 [EGB]2 [CFA]4 | %6
 [FAf]3 [FAc] [DFd]2 [D^Fc]2 | [EGc]2 [DFG=B]2 [CEGc]4 | f3 c [FBd]2 [CFc]2 | %9
 [D^Fc]2 [DGB]2 [^CEA]4 | [DFG]2 [D^FA]2 [DGB]2 [DGd]2 | [CFAa]2 [B,CEGg]2 [A,CFf]4 |] %12
V:2
 x8 | x8 | x8 | x8 | x8 | x8 | x8 | x8 | [FAc]4 x4 | x8 | x8 | x8 |] %12
V:3
 [F,,F,]2 [E,,E,]2 [D,,D,]2 [C,,C,]2 | [F,,F,]2 [E,,E,]2 [D,,D,]4 | %2
 [C,A,]2 [B,,B,]2 [D,A,]2 [G,,G,]2 | [C,,C,]2 [C,,C,]2 [F,,F,]4 | %4
 [F,,F,]2 [A,,A,]2 [B,,B,]2 [A,,A,]2 | [G,,G,]2 [C,,C,]2 [F,,F,]2 [E,,E,]2 | %6
 ([D,,D,]2 [C,,C,]2) [B,,,B,,]2 [A,,,A,,]2 | [G,,,G,,]2 [G,,G,]2 ([C,,C,][B,,B,][A,,A,][G,,G,]) | %8
 [F,,F,]2 [A,,A,]2 [B,,B,]2 [A,,A,]2 | [D,,D,]2 [G,,G,]2 [A,,A,]4 | %10
 [B,,B,]2 [A,,A,]2 [G,,G,]2 [B,,B,]2 | [C,C]2 [C,,C,]2 [F,,F,]4 |] %12

